X: 13161
T: My Jo Janet
%R: reel
B: James Oswald "The Caledonian Pocket Companion" v.1 b.3 p.16 #1
S: https://ia800501.us.archive.org/18/items/caledonianpocket01rugg/caledonianpocket01rugg_bw.pdf
Z: 2020 John Chambers <jc:trillian.mit.edu>
M: C
L: 1/8
K: D
"_Brisk"A |\
Adde Tc>deg | fddD TF2A2 | (B/c/d) de Tc>d (e/f/g/a/) | fddA F2 A(B/c/) |\
(d/c/B/A/) (B/A/G/F/) =c2E2 | FDA2 FD AB/c/ |
(d/c/B/A/) (B/A/G/F/) E=c (E/F/G/E/) | FD dD TF2A2 :: Dd c/d/e df (e/f/g) |\
(f/g/a) dD F2TA2 | f/e/d/f/ g/f/e/g/ a/g/f/a/ g/f/e/g/ |
f/g/e/f/ dD TF2A2 | Bd/c/ B/A/G/F/ =cG E/F/G/E/ |\
D/F/A F/A/d A/d/f d/f/a | f/g/f/e/ d/c/B/A/ dF E/F/G/E/ | D/E/F/G/ AD TF2A2 :|


